X: 15789
T: Goodbye Miss Goodavich
R: reel
M: 4/4
K: Eminor
e~B3 cBAG|AEGA DEGA|Bded ~g3a|f2af gfed|
e~B3 cBAG|AEGA DEGA|GeBG FdAF|1 GEBA GEGB:|2 GEBA GEGA||
BDGB cBAG|A~F3 D~F3|Adde fagf|geed efga|
b2bg ef(3gfe|adfa bagf|gdBG FdAF|GEED EFGA:|

